src/main/resources/icons/AllIcons/nodes/notFavoriteOnHover.svg

<!-- Copyright 2000-2021 JetBrains s.r.o. Use of this source code is governed by the Apache 2.0 license that can be found in the LICENSE file. -->
<svg xmlns="http://www.w3.org/2000/svg" width="16" height="16" viewBox="0 0 16 16">
  <path fill="#F4AF3D" fill-rule="evenodd" d="M7.99803637,11.5221844 L3.67301204,14.3110562 L4.98888068,9.33590483 L1,6.08437103 L6.13827587,5.79843016 L7.99803637,1 L9.85779686,5.79843016 L14.9960727,6.08437103 L11.0071921,9.33590483 L12.3230607,14.3110562 L7.99803637,11.5221844 Z M7.9980365,10.1585932 L10.5294562,11.7909089 L9.7592835,8.87897234 L12.0939597,6.97586238 L9.08654701,6.80850232 L7.9980365,4 L6.90952599,6.80850232 L3.90211332,6.97586238 L6.2367895,8.87897234 L5.46661676,11.7909089 L7.9980365,10.1585932 Z"/>
</svg>

<svg xmlns="http://www.w3.org/2000/svg" width="16" height="16" viewBox="0 0 16 16"><rect id="frame" width="16" height="16" fill="none"/><path fill="#F4AF3D" fill-rule="evenodd" d="M7.998 11.522l-4.325 2.79 1.316-4.976L1 6.084l5.138-.286L7.998 1l1.86 4.798 5.138.286-3.989 3.252 1.316 4.975-4.325-2.789zm0-1.363l2.531 1.632-.77-2.912 2.335-1.903-3.007-.167L7.998 4 6.91 6.809l-3.008.167 2.335 1.903-.77 2.912 2.531-1.632z"/></svg>
